build/Karasa-Jaga/scalable/status/channel-insecure-symbolic.svg

<svg height="16" width="16" xmlns="http://www.w3.org/2000/svg"><g fill="#bebebe"><path d="m13 6v-2c0-1.9948605-1.963532-4-4-4h-2c-2.0156643 0-4 2.0259433-4 4h2c0-.6671267.8010827-2 2-2h2c1.15731 0 2 1.1700861 2 2v2z"/><path d="m2 7v2.25h2.25v.5h-2.25v1.25.25h2.25v.5h-2.25v1.5h2.25v.5h-2.25v.25.5c0 .831.669 1.5 1.5 1.5h9c.831 0 1.5-.669 1.5-1.5v-.5-.25h-2.25v-.5h2.25v-1.5h-2.25v-.5h2.25v-.25-1.25h-2.25v-.5h2.25v-2.25zm6 2c1.1045695 0 2 .6715729 2 1.5 0 .554048-.4042701 1.021494-1 1.28125v1.21875c0 .554-.446.75-1 .75s-1-.196-1-.75v-1.21875c-.5957299-.259756-1-.727202-1-1.28125 0-.8284271.8954305-1.5 2-1.5z"/></g></svg>

<?xml version="1.0" encoding="UTF-8" standalone="no"?>
<!-- Created with Inkscape (http://www.inkscape.org/) -->

<svg
   xmlns:dc="http://purl.org/dc/elements/1.1/"
   xmlns:cc="http://creativecommons.org/ns#"
   xmlns:rdf="http://www.w3.org/1999/02/22-rdf-syntax-ns#"
   xmlns:svg="http://www.w3.org/2000/svg"
   xmlns="http://www.w3.org/2000/svg"
   xmlns:inkscape="http://www.inkscape.org/namespaces/inkscape"
   version="1.1"
   width="16"
   height="16"
   id="svg7384">
  <title
     id="title9167">Gnome Symbolic Icon Theme</title>
  <defs
     id="defs11" />
  <metadata
     id="metadata90">
    <rdf:RDF>
      <cc:Work
         rdf:about="">
        <dc:format>image/svg+xml</dc:format>
        <dc:type
           rdf:resource="http://purl.org/dc/dcmitype/StillImage" />
        <dc:title>Gnome Symbolic Icon Theme</dc:title>
      </cc:Work>
    </rdf:RDF>
  </metadata>
  <path
     d="M 13,6 13,4 C 13,2.0051395 11.036468,0 9,0 L 7,0 C 4.9843357,0 3,2.0259433 3,4 L 5,4 C 5,3.3328733 5.8010827,2 7,2 l 2,0 c 1.15731,0 2,1.1700861 2,2 l 0,2 z"
     inkscape:connector-curvature="0"
     id="rect5137"
     style="color:#bebebe;fill:#bebebe;fill-opacity:1;fill-rule:nonzero;stroke:none;stroke-width:1;marker:none;visibility:visible;display:inline;overflow:visible;enable-background:accumulate" />
  <path
     d="m 2,7 0,2.25 2.25,0 0,0.5 -2.25,0 0,1.25 0,0.25 2.25,0 0,0.5 -2.25,0 0,1.5 2.25,0 0,0.5 -2.25,0 0,0.25 0,0.5 C 2,15.331 2.669,16 3.5,16 l 9,0 c 0.831,0 1.5,-0.669 1.5,-1.5 l 0,-0.5 0,-0.25 -2.25,0 0,-0.5 2.25,0 0,-1.5 -2.25,0 0,-0.5 2.25,0 0,-0.25 0,-1.25 -2.25,0 0,-0.5 2.25,0 L 14,7 z m 6,2 c 1.1045695,0 2,0.6715729 2,1.5 0,0.554048 -0.4042701,1.021494 -1,1.28125 L 9,13 C 9,13.554 8.554,13.75 8,13.75 7.446,13.75 7,13.554 7,13 L 7,11.78125 C 6.4042701,11.521494 6,11.054048 6,10.5 6,9.6715729 6.8954305,9 8,9 z"
     inkscape:connector-curvature="0"
     id="rect2995"
     style="color:#bebebe;fill:#bebebe;fill-opacity:1;fill-rule:nonzero;stroke:none;stroke-width:1;marker:none;visibility:visible;display:inline;overflow:visible;enable-background:accumulate" />
</svg>
